src/components/LandingPage/images/SocialProofLogos/ycombinator.svg

<svg xmlns="http://www.w3.org/2000/svg" width="164" height="34" fill="none" viewBox="0 0 164 34"><g clip-path="url(#clip0)" opacity=".4"><path fill="#fff" fill-rule="evenodd" d="M0.0629883 6.10352e-05H33.8676V34.0001H0.0629883V6.10352e-05ZM9.97993 8.27346L15.8394 19.2668V26.4068H18.093V19.3801L23.9525 8.27346H21.4735L18.093 15.1868L18.093 15.1868C17.8677 15.5268 17.6423 15.8668 17.5296 16.2068C17.4648 16.4677 17.3626 16.6536 17.266 16.8291C17.1948 16.9586 17.1267 17.0825 17.0789 17.2268C17.0226 17.1701 16.9944 17.0851 16.9662 17.0001C16.938 16.9151 16.9099 16.8301 16.8535 16.7735C16.7972 16.6601 16.769 16.5751 16.7409 16.4901C16.7127 16.4051 16.6845 16.3201 16.6282 16.2068V16.0935L16.5155 15.9801C16.4724 15.8935 16.4458 15.8235 16.4231 15.7637C16.3864 15.6669 16.3598 15.5968 16.2901 15.5268C16.1774 15.4135 16.0648 15.3001 16.0648 15.1868L12.6843 8.27346H9.97993Z" clip-rule="evenodd"/><path fill="#fff" d="M49.3051 6.57343C50.9954 6.57343 52.4602 7.02676 53.5871 7.93343L52.4602 9.29342C51.4461 8.61342 50.432 8.16009 49.1925 8.16009C47.2769 8.16009 45.812 9.18009 45.0232 11.1068C44.5725 12.2401 44.3471 13.7134 44.3471 15.6401C44.3471 17.1134 44.5725 18.3601 44.9105 19.2668C45.812 21.4201 47.2769 22.4401 49.5305 22.4401C50.77 22.4401 51.8968 22.1001 52.911 21.3068L54.0378 22.7801C52.5729 23.6868 50.9954 24.1401 49.3051 24.1401C47.2769 24.1401 45.5866 23.3468 44.2344 21.6468C42.8823 20.0601 42.3188 17.9068 42.3188 15.3001C42.3188 12.6934 42.9949 10.6534 44.3471 8.95343C45.5866 7.48009 47.2769 6.57343 49.3051 6.57343Z"/><path fill="#fff" d="M55.728 17.7934C55.728 15.7534 56.1788 14.1667 57.1929 13.0334C58.207 11.9 59.4465 11.22 61.0241 11.22C62.827 11.22 64.2919 11.9 65.306 13.3734C66.0948 14.5067 66.4328 16.0934 66.4328 18.02C66.4328 20.2867 65.7567 22.1 64.5172 23.2334C63.6158 24.0267 62.4889 24.48 61.1368 24.48C59.4465 24.48 58.207 23.9134 57.1929 22.6667C56.1788 21.5334 55.728 19.8334 55.728 17.7934ZM63.6158 14.5067C63.0524 13.4867 62.2636 12.92 61.0241 12.92C59.7846 12.92 58.9958 13.3734 58.4324 14.28C57.9817 14.96 57.869 16.0934 57.869 17.5667C57.869 19.4934 58.0943 20.8534 58.6578 21.6467C59.2212 22.44 60.0099 22.8934 61.1368 22.8934C62.4889 22.8934 63.3904 22.2134 63.8411 20.9667C64.0665 20.2867 64.1792 19.38 64.1792 18.2467C64.2919 16.5467 64.0665 15.3 63.6158 14.5067Z"/><path fill="#fff" d="M70.0386 14.7334C70.0386 13.4867 69.9259 12.4667 69.5879 11.6734L71.5035 11.22C71.8415 11.7867 71.9542 12.4667 71.9542 13.0334V13.1467C72.4049 12.6934 72.8557 12.24 73.5318 11.9C74.3205 11.4467 74.9966 11.22 75.6727 11.22C76.6869 11.22 77.5883 11.6734 78.1517 12.4667C78.2644 12.6934 78.4898 13.0334 78.6024 13.26C79.9546 11.9 81.1941 11.22 82.5463 11.22C83.4478 11.22 84.2365 11.56 84.8 12.1267C85.3634 12.8067 85.7014 13.6 85.7014 14.5067V23.9134H83.6731V14.62C83.6731 13.3734 83.1097 12.8067 82.0956 12.8067C81.5322 12.8067 80.8561 13.0334 80.2927 13.4867C80.0673 13.7134 79.6166 14.0534 79.0532 14.5067L78.8278 14.7334V23.9134H76.6869V15.0734C76.6869 14.28 76.5742 13.7134 76.3488 13.4867C76.0108 13.1467 75.6727 13.0334 75.1093 13.0334C74.2078 13.0334 73.1937 13.6 71.9542 14.7334V24.0267H70.0386V14.7334Z"/><path fill="#fff" d="M89.1943 6.12008L91.2226 5.66675C91.448 6.57341 91.5607 7.59341 91.5607 8.84008V11.6734C91.5607 12.3534 91.5607 12.8067 91.5607 13.0334C92.6875 11.9001 93.927 11.3334 95.1665 11.3334C96.6314 11.3334 97.8709 11.9001 98.6596 13.0334C99.5611 14.1667 100.012 15.7534 100.012 17.6801C100.012 19.7201 99.5611 21.3067 98.6596 22.5534C97.7582 23.8001 96.5187 24.3667 95.0538 24.3667C94.3777 24.3667 93.8143 24.2534 93.1382 23.9134C92.4621 23.5734 92.0114 23.2334 91.6733 22.7801C91.5607 23.3467 91.448 23.8001 91.3353 24.1401H89.4197C89.6451 23.5734 89.7577 22.5534 89.7577 20.9667V9.06675C89.6451 7.70675 89.5324 6.68675 89.1943 6.12008ZM92.4621 13.8267C92.1241 14.0534 91.786 14.3934 91.5607 14.7334V21.1934C92.3494 22.2134 93.3636 22.6667 94.6031 22.6667C95.6172 22.6667 96.406 22.3267 96.8567 21.5334C97.4201 20.6267 97.7582 19.3801 97.7582 17.5667C97.7582 15.9801 97.5328 14.8467 96.9694 14.1667C96.5187 13.4867 95.7299 13.1467 94.6031 13.1467C93.927 13.0334 93.1382 13.2601 92.4621 13.8267Z"/><path fill="#fff" d="M102.942 7.70672C102.942 7.25339 103.055 6.91339 103.393 6.57339C103.731 6.23339 104.069 6.12006 104.519 6.12006C104.97 6.12006 105.308 6.23339 105.646 6.57339C105.984 6.91339 106.097 7.25339 106.097 7.70672C106.097 8.16006 105.984 8.50006 105.646 8.84006C105.308 9.18006 104.97 9.29339 104.519 9.29339C104.069 9.29339 103.731 9.18006 103.393 8.84006C103.055 8.50006 102.942 8.16006 102.942 7.70672ZM103.393 24.0267V11.5601L105.421 11.2201V24.0267H103.393Z"/><path fill="#fff" d="M109.815 14.7334C109.815 13.8267 109.815 13.26 109.703 13.0334C109.703 12.6934 109.477 12.3534 109.252 11.7867L111.168 11.22C111.506 11.9 111.618 12.4667 111.618 13.1467C112.858 11.9 114.21 11.22 115.562 11.22C116.238 11.22 116.802 11.3334 117.365 11.6734C117.928 12.0134 118.379 12.4667 118.605 13.0334C118.83 13.4867 118.943 13.94 118.943 14.5067V24.0267H117.027V15.5267C117.027 14.5067 116.914 13.8267 116.576 13.4867C116.238 13.1467 115.787 12.92 115.224 12.92C114.773 12.92 114.097 13.1467 113.421 13.4867C112.745 13.8267 112.182 14.28 111.731 14.7334V24.0267H109.815V14.7334Z"/><path fill="#fff" d="M123.45 14.28L122.435 12.92C124.126 11.7867 125.816 11.22 127.619 11.22C129.422 11.22 130.549 11.9 131.112 13.1467C131.337 13.6 131.337 14.28 131.337 15.3V15.98L131.225 20.06C131.225 20.1734 131.225 20.4 131.225 20.6267C131.225 21.3067 131.225 21.76 131.337 22.1C131.45 22.5534 131.788 22.8934 132.239 23.12L131.225 24.48C130.323 24.14 129.76 23.5734 129.534 22.6667C128.408 23.8 127.168 24.3667 125.929 24.3667C124.689 24.3667 123.675 24.0267 122.886 23.3467C122.21 22.78 121.872 21.8734 121.872 20.74C121.872 19.2667 122.435 18.2467 123.562 17.4534C124.689 16.66 126.379 16.32 128.408 16.32C128.746 16.32 128.971 16.32 129.309 16.32V15.4134C129.309 14.3934 129.196 13.7134 128.858 13.4867C128.408 13.0334 127.957 12.8067 127.168 12.8067C126.492 12.8067 125.703 13.0334 124.802 13.3734C124.464 13.6 124.013 13.94 123.45 14.28ZM129.422 20.9667L129.534 17.68C128.971 17.68 128.633 17.68 128.52 17.68C126.717 17.68 125.591 18.02 124.914 18.7C124.464 19.1534 124.238 19.8334 124.238 20.74C124.238 22.2134 124.914 23.0067 126.379 23.0067C127.732 22.8934 128.746 22.2134 129.422 20.9667Z"/><path fill="#fff" d="M137.761 11.5601H140.916L140.352 13.1467H137.761V21.1934C137.761 21.8734 137.873 22.3267 138.099 22.6667C138.324 22.8934 138.775 23.1201 139.338 23.1201C139.789 23.1201 140.24 23.0067 140.578 22.8934L140.803 24.1401C140.127 24.4801 139.451 24.5934 138.662 24.5934C136.746 24.5934 135.845 23.6867 135.845 21.7601V13.1467H134.155V11.5601H135.732V11.3334C135.732 11.1067 135.845 10.2001 135.958 8.72674V8.38674L137.986 7.93341C137.761 9.29341 137.761 10.5401 137.761 11.5601Z"/><path fill="#fff" d="M142.944 17.7934C142.944 15.7534 143.395 14.1667 144.409 13.0334C145.311 11.9 146.663 11.22 148.24 11.22C150.043 11.22 151.508 11.9 152.522 13.3734C153.311 14.5067 153.649 16.0934 153.649 18.02C153.649 20.2867 152.973 22.1 151.734 23.2334C150.832 24.0267 149.705 24.48 148.353 24.48C146.663 24.48 145.423 23.9134 144.409 22.6667C143.508 21.5334 142.944 19.8334 142.944 17.7934ZM150.945 14.5067C150.381 13.4867 149.593 12.92 148.353 12.92C147.114 12.92 146.325 13.3734 145.761 14.28C145.311 14.96 145.198 16.0934 145.198 17.5667C145.198 19.4934 145.423 20.8534 145.987 21.6467C146.55 22.44 147.339 22.8934 148.466 22.8934C149.818 22.8934 150.719 22.2134 151.17 20.9667C151.395 20.2867 151.508 19.38 151.508 18.2467C151.508 16.5467 151.283 15.3 150.945 14.5067Z"/><path fill="#fff" d="M157.367 14.5067C157.367 13.3734 157.254 12.4667 156.916 11.7867L158.832 11.22C159.17 11.9 159.282 12.4667 159.282 13.1467V13.3734C160.296 12.0134 161.423 11.3334 162.775 11.3334C163.001 11.3334 163.226 11.3334 163.452 11.4467L162.663 13.6C162.437 13.4867 162.212 13.4867 162.099 13.4867C161.649 13.4867 161.085 13.6 160.635 13.94C160.184 14.28 159.733 14.62 159.508 15.0734C159.395 15.4134 159.282 15.8667 159.282 16.4334V24.2534H157.367V14.5067Z"/></g><defs><clipPath id="clip0"><rect width="163.389" height="34" fill="#fff" transform="translate(0.0629883)"/></clipPath></defs></svg>

<svg fill="none" viewBox="0 0 164 34"><g fill="#fff" clip-path="url(#clip0)" opacity=".4"><path fill-rule="evenodd" d="M.063 0h33.805v34H.063V0zM9.98 8.273l5.86 10.994v7.14h2.253V19.38l5.86-11.107h-2.48l-3.38 6.914c-.225.34-.45.68-.563 1.02-.065.26-.167.447-.264.622-.071.13-.14.253-.187.398a.572.572 0 01-.113-.227c-.028-.085-.056-.17-.113-.227a1.959 1.959 0 01-.112-.283 1.967 1.967 0 00-.113-.283v-.114l-.113-.113a2.218 2.218 0 01-.092-.216.595.595 0 00-.133-.237c-.113-.113-.225-.227-.225-.34l-3.38-6.914H9.98z" clip-rule="evenodd"/><path d="M49.305 6.573c1.69 0 3.155.454 4.282 1.36l-1.127 1.36c-1.014-.68-2.028-1.133-3.267-1.133-1.916 0-3.381 1.02-4.17 2.947-.45 1.133-.676 2.606-.676 4.533 0 1.473.225 2.72.563 3.627.902 2.153 2.367 3.173 4.62 3.173 1.24 0 2.367-.34 3.381-1.133l1.127 1.473c-1.465.907-3.043 1.36-4.733 1.36-2.028 0-3.718-.793-5.07-2.493-1.353-1.587-1.916-3.74-1.916-6.347s.676-4.647 2.028-6.347c1.24-1.473 2.93-2.38 4.958-2.38zm6.423 11.22c0-2.04.45-3.626 1.465-4.76 1.014-1.133 2.254-1.813 3.831-1.813 1.803 0 3.268.68 4.282 2.153.789 1.134 1.127 2.72 1.127 4.647 0 2.267-.676 4.08-1.916 5.213-.901.794-2.028 1.247-3.38 1.247-1.69 0-2.93-.567-3.944-1.813-1.014-1.134-1.465-2.834-1.465-4.874zm7.888-3.286c-.564-1.02-1.352-1.587-2.592-1.587s-2.028.453-2.592 1.36c-.45.68-.563 1.813-.563 3.287 0 1.926.225 3.286.789 4.08.563.793 1.352 1.246 2.479 1.246 1.352 0 2.253-.68 2.704-1.926.226-.68.338-1.587.338-2.72.113-1.7-.112-2.947-.563-3.74zm6.423.226c0-1.246-.113-2.266-.451-3.06l1.916-.453c.337.567.45 1.247.45 1.813v.114c.45-.454.902-.907 1.578-1.247.788-.453 1.465-.68 2.14-.68 1.015 0 1.916.453 2.48 1.247.112.226.338.566.45.793 1.353-1.36 2.592-2.04 3.944-2.04.902 0 1.69.34 2.254.907.563.68.901 1.473.901 2.38v9.406h-2.028V14.62c0-1.247-.563-1.813-1.577-1.813-.564 0-1.24.226-1.803.68-.226.226-.676.566-1.24 1.02l-.225.226v9.18h-2.141v-8.84c0-.793-.113-1.36-.338-1.586-.338-.34-.676-.454-1.24-.454-.901 0-1.915.567-3.155 1.7v9.294H70.04v-9.294zM89.194 6.12l2.029-.453c.225.906.338 1.926.338 3.173v4.193c1.126-1.133 2.366-1.7 3.605-1.7 1.465 0 2.705.567 3.494 1.7.901 1.134 1.352 2.72 1.352 4.647 0 2.04-.45 3.627-1.352 4.873-.902 1.247-2.141 1.814-3.606 1.814-.676 0-1.24-.114-1.916-.454-.676-.34-1.127-.68-1.465-1.133-.112.567-.225 1.02-.338 1.36H89.42c.225-.567.338-1.587.338-3.173v-11.9c-.113-1.36-.226-2.38-.564-2.947zm3.268 7.707a3.44 3.44 0 00-.901.906v6.46c.788 1.02 1.803 1.474 3.042 1.474 1.014 0 1.803-.34 2.254-1.134.563-.906.901-2.153.901-3.966 0-1.587-.225-2.72-.789-3.4-.45-.68-1.24-1.02-2.366-1.02-.676-.114-1.465.113-2.14.68zm10.48-6.12c0-.454.113-.794.451-1.134.338-.34.676-.453 1.126-.453.451 0 .789.113 1.127.453.338.34.451.68.451 1.134 0 .453-.113.793-.451 1.133-.338.34-.676.453-1.127.453-.45 0-.788-.113-1.126-.453-.338-.34-.451-.68-.451-1.133zm.451 16.32V11.56l2.028-.34v12.807h-2.028zm6.422-9.294c0-.906 0-1.473-.112-1.7 0-.34-.226-.68-.451-1.246l1.916-.567c.338.68.45 1.247.45 1.927 1.24-1.247 2.592-1.927 3.944-1.927.676 0 1.24.113 1.803.453s1.014.794 1.24 1.36c.225.454.338.907.338 1.474v9.52h-1.916v-8.5c0-1.02-.113-1.7-.451-2.04a1.861 1.861 0 00-1.352-.567c-.451 0-1.127.227-1.803.567a6.57 6.57 0 00-1.69 1.246v9.294h-1.916v-9.294zm13.635-.453l-1.015-1.36c1.691-1.133 3.381-1.7 5.184-1.7 1.803 0 2.93.68 3.493 1.927.225.453.225 1.133.225 2.153v.68l-.112 4.08v.567c0 .68 0 1.133.112 1.473.113.453.451.793.902 1.02l-1.014 1.36c-.902-.34-1.465-.907-1.691-1.813-1.126 1.133-2.366 1.7-3.605 1.7-1.24 0-2.254-.34-3.043-1.02-.676-.567-1.014-1.474-1.014-2.607 0-1.473.563-2.493 1.69-3.287 1.127-.793 2.817-1.133 4.846-1.133h.901v-.907c0-1.02-.113-1.7-.451-1.926-.45-.454-.901-.68-1.69-.68-.676 0-1.465.226-2.366.566-.338.227-.789.567-1.352.907zm5.972 6.687l.112-3.287h-1.014c-1.803 0-2.929.34-3.606 1.02-.45.453-.676 1.133-.676 2.04 0 1.473.676 2.267 2.141 2.267 1.353-.114 2.367-.794 3.043-2.04zm8.339-9.407h3.155l-.564 1.587h-2.591v8.046c0 .68.112 1.134.338 1.474.225.226.676.453 1.239.453.451 0 .902-.113 1.24-.227l.225 1.247c-.676.34-1.352.453-2.141.453-1.916 0-2.817-.906-2.817-2.833v-8.613h-1.69V11.56h1.577v-.227c0-.226.113-1.133.226-2.606v-.34l2.028-.454c-.225 1.36-.225 2.607-.225 3.627zm5.183 6.233c0-2.04.451-3.626 1.465-4.76.902-1.133 2.254-1.813 3.831-1.813 1.803 0 3.268.68 4.282 2.153.789 1.134 1.127 2.72 1.127 4.647 0 2.267-.676 4.08-1.915 5.213-.902.794-2.029 1.247-3.381 1.247-1.69 0-2.93-.567-3.944-1.813-.901-1.134-1.465-2.834-1.465-4.874zm8.001-3.286c-.564-1.02-1.352-1.587-2.592-1.587-1.239 0-2.028.453-2.592 1.36-.45.68-.563 1.813-.563 3.287 0 1.926.225 3.286.789 4.08.563.793 1.352 1.246 2.479 1.246 1.352 0 2.253-.68 2.704-1.926.225-.68.338-1.587.338-2.72 0-1.7-.225-2.947-.563-3.74zm6.422 0c0-1.134-.113-2.04-.451-2.72l1.916-.567c.338.68.45 1.247.45 1.927v.226c1.014-1.36 2.141-2.04 3.493-2.04.226 0 .451 0 .677.114l-.789 2.153c-.226-.113-.451-.113-.564-.113-.45 0-1.014.113-1.464.453-.451.34-.902.68-1.127 1.133-.113.34-.226.794-.226 1.36v7.82h-1.915v-9.746z"/></g><defs><clipPath id="clip0"><path fill="#fff" d="M0 0h163.389v34H0z" transform="translate(.063)"/></clipPath></defs></svg>
